FINK
CUT[LASS DIE TOEN ERKLINGEN]
REG[Europa, Mitteleuropa, Deutschland]
KEY[F0237  16  F 2/4]
MEL[  3_3_3_3_  5_.43__
    5_3_4_2_  3__0__
    4_4_3_3_  6_.7+1__
    5_3_4_2_  1__0__ //] >>
FCT[Jugend - Lied, Geschwister - Liebe]
